Newaita/actions/16/mail-encrypted-full.svg

<?xml version="1.0" encoding="UTF-8"?>
<svg xmlns="http://www.w3.org/2000/svg" xmlns:xlink="http://www.w3.org/1999/xlink" width="16pt" height="16pt" viewBox="0 0 16 16" version="1.1">
<g id="surface1">
<path style=" stroke:none;fill-rule:nonzero;fill:rgb(25.882354%,25.882354%,25.882354%);fill-opacity:1;" d="M 1.984375 2.109375 C 1.25 2.109375 0.660156 2.699219 0.660156 3.433594 L 0.660156 13.023438 C 0.660156 13.757812 1.25 14.347656 1.984375 14.347656 L 9.59375 14.347656 L 9.59375 13.355469 L 2.316406 13.355469 C 1.949219 13.355469 1.652344 13.058594 1.652344 12.695312 L 1.652344 3.867188 L 7.558594 9.152344 C 7.773438 9.34375 8.101562 9.34375 8.320312 9.152344 L 14.222656 3.867188 L 14.222656 8.726562 L 15.214844 8.726562 L 15.214844 3.433594 C 15.214844 2.699219 14.625 2.109375 13.890625 2.109375 Z M 2.511719 3.101562 L 13.367188 3.101562 L 7.9375 7.957031 Z M 2.511719 3.101562 "/>
<path style=" stroke:none;fill-rule:nonzero;fill:rgb(40.000001%,73.333335%,41.568628%);fill-opacity:1;" d="M 12.71875 8.726562 C 11.902344 8.726562 11.246094 9.316406 11.246094 10.046875 L 11.246094 11.039062 L 10.730469 11.039062 C 10.464844 11.039062 10.253906 11.253906 10.253906 11.523438 L 10.253906 13.867188 C 10.253906 14.125 10.453125 14.335938 10.707031 14.347656 C 10.714844 14.347656 10.722656 14.347656 10.730469 14.347656 L 14.738281 14.347656 C 14.746094 14.347656 14.753906 14.347656 14.761719 14.347656 C 15.015625 14.335938 15.214844 14.125 15.214844 13.867188 L 15.214844 11.523438 C 15.214844 11.414062 15.179688 11.3125 15.121094 11.234375 C 15.117188 11.226562 15.109375 11.222656 15.105469 11.214844 C 15.09375 11.199219 15.074219 11.179688 15.058594 11.164062 C 14.980469 11.09375 14.875 11.046875 14.761719 11.039062 C 14.753906 11.039062 14.746094 11.039062 14.738281 11.039062 L 14.222656 11.039062 L 14.222656 10.046875 C 14.222656 9.316406 13.566406 8.726562 12.746094 8.726562 Z M 12.734375 9.71875 C 13.007812 9.71875 13.230469 9.863281 13.230469 10.046875 L 13.230469 11.039062 L 12.238281 11.039062 L 12.238281 10.046875 C 12.238281 9.863281 12.460938 9.71875 12.734375 9.71875 Z M 11.246094 12.03125 L 14.222656 12.03125 L 14.222656 13.355469 L 11.246094 13.355469 Z M 11.246094 12.03125 "/>
</g>
</svg>

<svg xmlns="http://www.w3.org/2000/svg" width="16pt" height="16pt" viewBox="0 0 16 16"><path d="M1.984 2.11A1.32 1.32 0 0 0 .66 3.433v9.59c0 .734.59 1.324 1.324 1.324h7.61v-.993H2.316a.663.663 0 0 1-.664-.66V3.867L7.56 9.152a.577.577 0 0 0 .761 0l5.903-5.285v4.86h.992V3.434a1.32 1.32 0 0 0-1.324-1.325zm.528.992h10.855l-5.43 4.855zm0 0" fill="#424242"/><path d="M12.719 8.727c-.817 0-1.473.59-1.473 1.32v.992h-.516a.478.478 0 0 0-.476.484v2.344c0 .258.2.469.453.48h4.055a.477.477 0 0 0 .453-.48v-2.344c0-.109-.035-.21-.094-.289-.004-.007-.012-.011-.016-.02a.499.499 0 0 0-.344-.176l-.023.001h-.515v-.992c0-.73-.657-1.32-1.477-1.32zm.015.992c.274 0 .496.144.496.328v.992h-.992v-.992c0-.184.223-.328.496-.328zm-1.488 2.312h2.977v1.324h-2.977zm0 0" fill="#66bb6a"/></svg>
